svgs/sharp-light/plate-wheat.svg

<svg xmlns="http://www.w3.org/2000/svg" viewBox="0 0 512 512"><!--! Font Awesome Pro 6.6.0 by @fontawesome - https://fontawesome.com License - https://fontawesome.com/license (Commercial License) Copyright 2024 Fonticons, Inc. --><path d="M304 66.7l0 5.3c0 20.9 13.4 38.7 32 45.3l0-5.3c0-20.9-13.4-38.7-32-45.3zm0-33.1c36.5 7.4 64 39.7 64 78.4l0 8 0 32-16 0c-5.5 0-10.8-.6-16-1.6c-36.5-7.4-64-39.7-64-78.4l0-8 0-32 16 0c5.5 0 10.8 .6 16 1.6zM48 64l64 0 16 0 0 32-16 0L48 96 32 96l0-32 16 0zM16 144l128 0 16 0 0 32-16 0L16 176 0 176l0-32 16 0zm16 80l16 0 64 0 16 0 0 32-16 0-64 0-16 0 0-32zm272 24l0 5.3c18.6-6.6 32-24.4 32-45.3l0-5.3c-18.6 6.6-32 24.4-32 45.3zm64-40c0 38.7-27.5 71-64 78.4c-5.2 1-10.5 1.6-16 1.6l-16 0 0-32 0-8c0-38.7 27.5-71 64-78.4c5.2-1 10.5-1.6 16-1.6l16 0 0 32 0 8zM192 248l0 5.3c18.6-6.6 32-24.4 32-45.3l0-5.3c-18.6 6.6-32 24.4-32 45.3zm64-40c0 38.7-27.5 71-64 78.4c-5.2 1-10.5 1.6-16 1.6l-16 0 0-32 0-8c0-38.7 27.5-71 64-78.4c5.2-1 10.5-1.6 16-1.6l16 0 0 32 0 8zM192 66.7l0 5.3c0 20.9 13.4 38.7 32 45.3l0-5.3c0-20.9-13.4-38.7-32-45.3zm0-33.1c36.5 7.4 64 39.7 64 78.4l0 8 0 32-16 0c-5.5 0-10.8-.6-16-1.6c-36.5-7.4-64-39.7-64-78.4l0-8 0-32 16 0c5.5 0 10.8 .6 16 1.6zM416 248l0 5.3c18.6-6.6 32-24.4 32-45.3l0-5.3c-18.6 6.6-32 24.4-32 45.3zm64-40c0 38.7-27.5 71-64 78.4c-5.2 1-10.5 1.6-16 1.6l-16 0 0-32 0-8c0-38.7 27.5-71 64-78.4c5.2-1 10.5-1.6 16-1.6l16 0 0 32 0 8zM416 66.7l0 5.3c0 20.9 13.4 38.7 32 45.3l0-5.3c0-20.9-13.4-38.7-32-45.3zm0-33.1c36.5 7.4 64 39.7 64 78.4l0 8 0 32-16 0c-5.5 0-10.8-.6-16-1.6c-36.5-7.4-64-39.7-64-78.4l0-8 0-32 16 0c5.5 0 10.8 .6 16 1.6zM128 448l256 0 0-20.6 22.4-7C439 410.1 464.7 384.5 475 352L37 352c10.4 32.5 36.1 58.1 68.6 68.3l22.4 7 0 20.6zm-32 2.9C50.3 436.5 15 399 3.8 352C1.3 341.7 0 331 0 320l32 0 448 0 32 0c0 11-1.3 21.7-3.8 32c-11.2 47-46.6 84.5-92.2 98.9l0 29.1-32 0-256 0-32 0 0-29.1z"/></svg>

<svg xmlns="http://www.w3.org/2000/svg" viewBox="0 0 512 512"><!--! Font Awesome Pro 6.4.0 by @fontawesome - https://fontawesome.com License - https://fontawesome.com/license (Commercial License) Copyright 2023 Fonticons, Inc. --><path d="M304 66.7V72c0 20.9 13.4 38.7 32 45.3V112c0-20.9-13.4-38.7-32-45.3zm0-33.1c36.5 7.4 64 39.7 64 78.4v8 32H352c-5.5 0-10.8-.6-16-1.6c-36.5-7.4-64-39.7-64-78.4V64 32h16c5.5 0 10.8 .6 16 1.6zM48 64h64 16V96H112 48 32V64H48zM16 144H144h16v32H144 16 0V144H16zm16 80H48h64 16v32H112 48 32V224zm272 24v5.3c18.6-6.6 32-24.4 32-45.3v-5.3c-18.6 6.6-32 24.4-32 45.3zm64-40c0 38.7-27.5 71-64 78.4c-5.2 1-10.5 1.6-16 1.6H272V256v-8c0-38.7 27.5-71 64-78.4c5.2-1 10.5-1.6 16-1.6h16v32 8zM192 248v5.3c18.6-6.6 32-24.4 32-45.3v-5.3c-18.6 6.6-32 24.4-32 45.3zm64-40c0 38.7-27.5 71-64 78.4c-5.2 1-10.5 1.6-16 1.6H160V256v-8c0-38.7 27.5-71 64-78.4c5.2-1 10.5-1.6 16-1.6h16v32 8zM192 66.7V72c0 20.9 13.4 38.7 32 45.3V112c0-20.9-13.4-38.7-32-45.3zm0-33.1c36.5 7.4 64 39.7 64 78.4v8 32H240c-5.5 0-10.8-.6-16-1.6c-36.5-7.4-64-39.7-64-78.4V64 32h16c5.5 0 10.8 .6 16 1.6zM416 248v5.3c18.6-6.6 32-24.4 32-45.3v-5.3c-18.6 6.6-32 24.4-32 45.3zm64-40c0 38.7-27.5 71-64 78.4c-5.2 1-10.5 1.6-16 1.6H384V256v-8c0-38.7 27.5-71 64-78.4c5.2-1 10.5-1.6 16-1.6h16v32 8zM416 66.7V72c0 20.9 13.4 38.7 32 45.3V112c0-20.9-13.4-38.7-32-45.3zm0-33.1c36.5 7.4 64 39.7 64 78.4v8 32H464c-5.5 0-10.8-.6-16-1.6c-36.5-7.4-64-39.7-64-78.4V64 32h16c5.5 0 10.8 .6 16 1.6zM128 448H384V427.4l22.4-7C439 410.1 464.7 384.5 475 352H37c10.4 32.5 36.1 58.1 68.6 68.3l22.4 7V448zm-32 2.9C50.3 436.5 15 399 3.8 352C1.3 341.7 0 331 0 320H32 480h32c0 11-1.3 21.7-3.8 32c-11.2 47-46.6 84.5-92.2 98.9V480H384 128 96V450.9z"/></svg>
